symbolic/32x32/apps/pekka-kana-2.svg

<svg xmlns="http://www.w3.org/2000/svg" width="32" height="32" version="1">
 <rect style="opacity:0.2" width="28" height="28" x="2" y="3" rx="1.4" ry="1.4"/>
 <path style="opacity:0.2;fill:#ffffff" d="m 106.53763,-26.516129 c -1.108,0 -2,0.892 -2,2 v 1 c 0,-1.108 0.892,-2 2,-2 h 36 c 1.108,0 2,0.892 2,2 v -1 c 0,-1.108 -0.892,-2 -2,-2 z"/>
 <rect style="fill:#623d64" width="28" height="28" x="2" y="2" rx="1.4" ry="1.4"/>
 <path style="opacity:0.1" d="M 12.00925,3.0002417 C 11.476729,2.988079 10.868949,3.4345542 9.9575987,4.4856667 8.5838353,6.070105 7.917098,7.1045296 7.433942,8.4000258 6.7186733,10.317883 6.8901198,11.698765 7.9299022,12.394778 c 0.5491426,0.367585 0.5462253,0.356679 0.3252406,1.251557 -0.141581,0.573339 -0.1277688,0.725436 0.110662,1.223054 0.4814439,1.004795 1.8464832,1.437863 2.8178572,0.893814 0.585838,-0.328119 0.736329,-0.749371 0.748663,-2.093847 0.01221,-1.333057 -0.0067,-1.572102 0.434604,-1.571298 0.36451,6.74e-4 1.201098,0.528034 1.201098,0.757146 0.204906,-1.331575 2.443692,-1.391943 4.660612,1.923191 1.005602,0.297719 1.576218,0.109995 1.855967,-0.610615 l 0.174766,-0.450925 0.290152,0.53278 c 0.336248,0.617247 0.732115,0.767236 1.696721,0.643502 C 23.581864,14.72181 25,13.394022 25,12.314746 25,11.698591 24.387824,10.718402 23.115691,9.2982179 21.673797,7.6885168 21.149083,7.5885804 19.83595,8.6740844 18.912728,9.4372696 18.576191,9.5282706 18.177356,9.1224525 17.530732,8.46451 16.815354,8.7959594 16.297434,9.9936093 15.842461,11.0457 15.612049,10.951975 15.216109,9.5532809 15.041333,8.9358699 14.706545,7.8243117 14.47217,7.083419 14.237793,6.3425268 13.946684,5.4110628 13.825399,5.013325 13.563927,4.1558781 12.780996,3.1820151 12.233269,3.0331237 c -0.07368,-0.02003 -0.147951,-0.031151 -0.224025,-0.032887 z m 0.861399,6.2855578 c 0.02021,0.00224 0.03926,0.00701 0.05668,0.014256 0.279113,0.1160041 0.624253,0.7015075 0.671737,1.1397395 0.05067,0.467518 -0.105658,0.498046 -0.929163,0.181977 -0.487559,-0.187128 -0.690969,-0.345741 -0.690969,-0.538626 0,-0.3242813 0.588522,-0.8307298 0.891715,-0.7973423 z"/>
 <path style="opacity:0.1" d="M 14.75 11.570312 C 14.211089 11.599663 13.852638 11.903711 13.773438 12.378906 C 13.773438 12.464426 13.581844 12.724798 13.349609 12.957031 C 12.933296 13.373344 12.636366 14.123781 12.634766 14.759766 C 12.63441 14.938788 12.545735 15.228833 12.4375 15.402344 C 12.329271 15.575854 12.201428 16.305374 12.154297 17.023438 C 12.107167 17.741502 12.007836 18.479256 11.933594 18.662109 C 11.859354 18.844963 11.76063 19.168569 11.714844 19.382812 C 11.655614 19.659979 11.906069 20.113373 11.628906 20.173828 C 9.5166721 20.634552 9.1808188 21.548575 9.7929688 23.654297 C 10.060625 24.574997 10.664786 25.160024 11.34375 25.15625 C 11.592346 25.15485 11.374863 24.391841 12.115234 24.158203 C 13.467062 23.731607 14.257813 24.191611 14.257812 24.431641 C 14.257812 24.502571 14.48948 25.857361 14.763672 26.185547 C 15.169167 26.670891 15.263672 26.901013 15.263672 27.416016 C 15.263672 27.76809 15.134968 28.296921 14.976562 28.607422 C 14.66962 29.209088 14.644186 29.460574 14.873047 30 L 19.046875 30 C 18.517219 29.266967 18.334646 28.607075 18.332031 27.599609 C 18.330031 26.834421 18.64892 26.464086 19.542969 26.185547 C 21.067887 25.710462 21.631139 25.53452 22.097656 25.050781 C 22.605477 24.524214 22.947266 23.697103 22.947266 22.994141 C 22.947266 22.424944 22.451762 21.563515 21.546875 20.554688 C 19.998092 18.828 19.699061 18.643982 19.412109 17 C 19.231423 15.964822 19.115577 15.656472 18.773438 15.298828 C 18.307879 14.812176 18.11382 14.110897 18.472656 14.208984 C 17.044532 12.237219 15.648185 11.521389 14.75 11.570312 z M 11.585938 14.882812 C 11.536107 14.933552 11.480023 14.980097 11.417969 15.023438 C 11.480329 14.979878 11.535921 14.933854 11.585938 14.882812 z"/>
 <path style="opacity:0.1" d="M 14.609375 24.085938 C 14.393974 24.084604 13.819295 24.450403 13.734375 24.775391 C 13.645395 25.184337 14.834541 25.704938 14.894531 26.890625 C 14.971266 28.407303 14.086779 29.06103 14.330078 30 L 16.568359 30 C 16.722121 29.171099 16.258803 27.950826 16.234375 26.791016 C 16.213358 25.793258 16.97503 24.703713 16.802734 24.507812 C 16.502758 24.160487 15.945889 24.762631 15.179688 24.236328 C 14.944807 24.153871 14.688245 24.086434 14.609375 24.085938 z"/>
 <path style="fill:#bebebe" d="m 14.750391,10.569532 c -0.538911,0.02935 -0.89834,0.33418 -0.97754,0.809375 0,0.08552 -0.190225,0.346086 -0.42246,0.578319 -0.416313,0.416313 -0.714807,1.167336 -0.716407,1.803321 -3.56e-4,0.179022 -0.08864,0.4677 -0.196875,0.641211 -0.108229,0.17351 -0.235877,0.903421 -0.283008,1.621484 -0.04713,0.718065 -0.145875,1.455038 -0.220117,1.637891 -0.07424,0.182854 -0.172964,0.507631 -0.21875,0.721875 -0.05923,0.277166 0.191443,0.73086 -0.08572,0.791315 -2.1122341,0.460724 -2.4483104,1.374453 -1.8361604,3.480175 0.2676564,0.9207 0.8714264,1.504947 1.5503904,1.501173 0.248596,-0.0014 0.03112,-0.763885 0.771491,-0.997523 1.351828,-0.426596 2.142383,0.03425 2.142383,0.27428 0,0.07093 0.232108,1.425519 0.5063,1.753705 0.405495,0.485344 0.499023,0.715465 0.499023,1.230468 0,0.352074 -0.127336,0.88032 -0.285742,1.190821 -0.358546,0.702819 -0.35644,0.901768 0.01777,1.674804 L 15.298485,29.908399 15.212352,30 h 4.696437 c -0.03823,-0.04008 -0.07707,-0.08285 -0.114844,-0.12168 -1.134591,-1.166154 -1.457927,-1.89295 -1.461523,-3.278515 -0.002,-0.765188 0.315912,-1.1365 1.209961,-1.415039 1.524918,-0.475085 2.089077,-0.64966 2.555594,-1.133399 0.507821,-0.526567 0.849023,-1.353288 0.849023,-2.05625 0,-0.569197 -0.495113,-1.431603 -1.4,-2.44043 C 19.998217,17.828 19.698085,17.643982 19.411133,16 19.230447,14.964822 19.114796,14.656862 18.772657,14.299218 18.307098,13.812566 18.114406,13.111483 18.473242,13.20957 c 0.12956,0.03541 0.251934,0.06251 0.367774,0.0834 -0.11584,-0.02089 -0.238214,-0.04935 -0.367774,-0.08477 -1.428124,-1.971765 -2.824666,-2.687594 -3.722851,-2.638671 z m -3.16504,3.312694 c -0.04983,0.05074 -0.104742,0.09748 -0.166796,0.140821 0.06236,-0.04356 0.116779,-0.08978 0.166796,-0.140821 z"/>
 <path style="opacity:0.1" d="m 13.785285,14.033505 c -0.555844,0.173441 -0.978614,0.356051 -1.335946,0.538313 -0.105459,0.298274 -0.210281,0.876006 -0.254739,1.451152 -0.0555,0.718065 -0.172218,1.45504 -0.259653,1.637893 -0.0024,0.0052 -0.0055,0.01439 -0.0082,0.01982 0.922194,0.416337 2.154501,0.240891 2.316406,-2.286095 -0.108973,-0.46298 0.26983,-1.029445 -0.457873,-1.361085 z"/>
 <path style="opacity:0.1" d="m 15.013022,12.473856 c -1.14465,0.614363 -0.548776,1.663497 -0.720185,2.521171 0.385158,7.079875 4.62124,4.198444 5.197091,2.624454 l 0.170397,-0.465983 c -0.09473,-0.308806 -0.163989,-0.666164 -0.248988,-1.153131 -0.09441,-0.540892 -0.171803,-0.881445 -0.272286,-1.136093 -1.080203,-0.731198 -2.003207,-1.610317 -4.126029,-2.390418 z"/>
 <path style="fill:#c12133" d="m 14.948016,30 c -1.523946,-1.61673 0.0467,-2.117568 -0.05405,-4.10892 -0.05999,-1.185687 -1.248769,-1.706666 -1.159789,-2.115612 0.08492,-0.324988 0.660567,-0.691797 0.875968,-0.690464 0.07887,4.97e-4 0.335597,0.0684 0.570477,0.150857 0.766201,0.526303 1.32304,-0.07479 1.623016,0.272536 0.172296,0.1959 -0.590152,1.285746 -0.569135,2.283504 0.04157,1.973667 1.404531,4.151128 -1.286484,4.208099 z"/>
 <path style="opacity:0.1" d="m 11.748891,19.017379 c -0.05934,0.284557 -0.196121,0.425266 -0.473782,0.487333 -2.1159951,0.47301 -3.7377014,2.791072 -3.1244608,4.952941 0.2681329,0.94525 0.8735442,1.546202 1.5537178,1.542328 0.24904,-0.0014 1.05972,-0.198911 1.801405,-0.438778 2.419448,-1.530775 4.177784,0.21755 5.125021,-0.792685 1.453656,-1.684684 -1.315734,-6.078829 -4.881901,-5.751139 z"/>
 <path style="fill:#f04559" d="m 11.748891,18.017379 c -0.05934,0.284557 -0.196121,0.425266 -0.473782,0.487333 -2.1159951,0.47301 -3.7377014,2.791072 -3.1244608,4.952941 0.2681329,0.94525 0.8735442,1.546202 1.5537178,1.542328 0.24904,-0.0014 1.05972,-0.198911 1.801405,-0.438778 2.419448,-1.530775 4.177784,0.21755 5.125021,-0.792685 1.453656,-1.684684 -1.315734,-6.078829 -4.881901,-5.751139 z"/>
 <ellipse style="opacity:0.1" cx="6.943" cy="23.968" rx="1.896" ry="2.579" transform="matrix(0.84416032,-0.53609081,0.46475504,0.8854393,0,0)"/>
 <ellipse style="fill:#ffffff" cx="7.409" cy="23.121" rx="1.896" ry="2.579" transform="matrix(0.84416032,-0.53609081,0.46475504,0.8854393,0,0)"/>
 <circle style="fill:#333333" cx="16.25" cy="16.25" r=".75"/>
 <ellipse style="opacity:0.1" cx="-17.445" cy="13.394" rx=".851" ry="1.021" transform="matrix(-0.97132325,-0.23776278,-0.28145173,0.95957539,0,0)"/>
 <ellipse style="fill:#ffffff" cx="-17.163" cy="12.421" rx=".851" ry="1.021" transform="matrix(-0.97132325,-0.23776278,-0.28145173,0.95957539,0,0)"/>
 <ellipse style="fill:#333333" cx="-8.52" cy="18.81" rx=".349" ry=".334" transform="matrix(-0.96894776,0.24726552,0.27083177,0.96262669,0,0)"/>
 <path style="fill:#f04559" d="M 12.00925,2.0002417 C 11.476729,1.988079 10.868949,2.4345542 9.9575987,3.4856667 8.5838353,5.070105 7.917098,6.1045296 7.433942,7.4000258 6.7186733,9.317883 6.8901198,10.698765 7.9299022,11.394778 c 0.5491426,0.367585 0.5462253,0.356679 0.3252406,1.251557 -0.141581,0.573339 -0.1277688,0.725436 0.110662,1.223054 0.4814439,1.004795 1.8464832,1.437863 2.8178572,0.893814 0.585838,-0.328119 0.736329,-0.749371 0.748663,-2.093847 0.01221,-1.333057 -0.0067,-1.572102 0.434604,-1.571298 0.36451,6.74e-4 1.201098,0.528034 1.201098,0.757146 0.204906,-1.331575 2.443692,-1.391943 4.660612,1.923191 1.005602,0.297719 1.576218,0.109995 1.855967,-0.610615 l 0.174766,-0.450925 0.290152,0.53278 c 0.336248,0.617247 0.732115,0.767236 1.696721,0.643502 C 23.581864,13.72181 25,12.394022 25,11.314746 25,10.698591 24.387824,9.718402 23.115691,8.2982179 21.673797,6.6885168 21.149083,6.5885804 19.83595,7.6740844 18.912728,8.4372696 18.576191,8.5282706 18.177356,8.1224525 17.530732,7.46451 16.815354,7.7959594 16.297434,8.9936093 15.842461,10.0457 15.612049,9.9519754 15.216109,8.5532809 15.041333,7.9358699 14.706545,6.8243117 14.47217,6.083419 14.237793,5.3425268 13.946684,4.4110628 13.825399,4.013325 13.563927,3.1558781 12.780996,2.1820151 12.233269,2.0331237 c -0.07368,-0.02003 -0.147951,-0.031151 -0.224025,-0.032887 z m 0.861399,6.2855578 c 0.02021,0.00224 0.03926,0.00701 0.05668,0.014256 0.279113,0.1160041 0.624253,0.7015073 0.671737,1.1397392 0.05067,0.4675183 -0.105658,0.4980467 -0.929163,0.1819775 -0.487559,-0.1871283 -0.690969,-0.3457416 -0.690969,-0.5386259 0,-0.3242816 0.588522,-0.8307301 0.891715,-0.7973426 z"/>
 <path style="fill:#ffffff;opacity:0.1" d="M 3.4003906 2 C 2.6247906 2 2 2.6247906 2 3.4003906 L 2 4.4003906 C 2 3.6247906 2.6247906 3 3.4003906 3 L 28.599609 3 C 29.375209 3 30 3.6247906 30 4.4003906 L 30 3.4003906 C 30 2.6247906 29.375209 2 28.599609 2 L 3.4003906 2 z"/>
</svg>

<svg xmlns="http://www.w3.org/2000/svg" width="32" height="32" version="1"><rect style="opacity:.2" width="28" height="28" x="2" y="3" rx="1.4" ry="1.4"/><path style="opacity:.2;fill:#fff" d="M106.538-26.516c-1.108 0-2 .892-2 2v1c0-1.108.892-2 2-2h36c1.108 0 2 .892 2 2v-1c0-1.108-.892-2-2-2z"/><rect style="fill:#623d64" width="28" height="28" x="2" y="2" rx="1.4" ry="1.4"/><path style="opacity:.1" d="M12.01 3c-.533-.012-1.141.435-2.052 1.486C8.584 6.07 7.918 7.105 7.434 8.4c-.715 1.918-.544 3.299.496 3.995.549.367.546.356.325 1.251-.141.574-.128.726.11 1.223.482 1.005 1.847 1.438 2.819.894.586-.328.736-.75.748-2.094.013-1.333-.006-1.572.435-1.57.364 0 1.201.527 1.201.756.205-1.331 2.444-1.392 4.66 1.923 1.006.298 1.577.11 1.857-.61l.174-.451.29.533c.337.617.733.767 1.697.643C23.582 14.722 25 13.394 25 12.315c0-.616-.612-1.597-1.884-3.017-1.442-1.61-1.967-1.71-3.28-.624-.923.763-1.26.854-1.659.448-.646-.657-1.362-.326-1.88.872-.455 1.052-.685.958-1.08-.44-.176-.618-.51-1.73-.745-2.47-.234-.741-.525-1.673-.647-2.07-.261-.858-1.044-1.832-1.592-1.98A.93.93 0 0 0 12.01 3zm.86 6.286c.02.002.04.007.057.014.28.116.625.702.672 1.14.05.467-.106.498-.93.182-.487-.187-.69-.346-.69-.539 0-.324.588-.83.892-.797z"/><path style="opacity:.1" d="M14.75 11.57c-.539.03-.897.334-.977.809 0 .085-.191.346-.423.578-.417.416-.714 1.167-.715 1.803 0 .179-.09.469-.197.642-.109.174-.237.903-.284 1.621-.047.719-.146 1.456-.22 1.64a5.207 5.207 0 0 0-.22.72c-.058.277.192.73-.085.79-2.112.462-2.448 1.376-1.836 3.481.268.921.872 1.506 1.55 1.502.25-.001.032-.764.772-.998 1.352-.426 2.143.034 2.143.274 0 .07.231 1.425.506 1.754.405.485.5.715.5 1.23 0 .352-.129.88-.287 1.191-.307.602-.333.854-.104 1.393h4.174c-.53-.733-.712-1.393-.715-2.4-.002-.766.317-1.136 1.211-1.414 1.525-.476 2.088-.651 2.555-1.135.507-.527.85-1.354.85-2.057 0-.57-.496-1.43-1.401-2.44-1.549-1.726-1.848-1.91-2.135-3.554-.18-1.035-.296-1.344-.639-1.701-.465-.487-.66-1.188-.3-1.09-1.428-1.972-2.825-2.688-3.723-2.639zm-3.164 3.313z"/><path style="opacity:.1" d="M14.61 24.086c-.216-.001-.79.364-.876.69-.089.408 1.1.929 1.16 2.115.077 1.516-.807 2.17-.564 3.109h2.238c.154-.829-.31-2.05-.334-3.209-.02-.998.741-2.087.569-2.283-.3-.348-.857.255-1.623-.272-.235-.082-.492-.15-.57-.15z"/><path style="fill:#bebebe" d="M14.75 10.57c-.539.029-.898.334-.977.809 0 .085-.19.346-.423.578-.416.417-.714 1.168-.716 1.804 0 .179-.089.467-.197.64-.108.174-.236.904-.283 1.622-.047.718-.146 1.455-.22 1.638a5.224 5.224 0 0 0-.219.722c-.059.277.192.73-.085.791-2.113.461-2.449 1.375-1.837 3.48.268.921.872 1.505 1.55 1.502.25-.002.032-.764.772-.998 1.352-.426 2.143.034 2.143.274 0 .071.232 1.426.506 1.754.405.485.499.716.499 1.23 0 .353-.127.88-.286 1.191-.358.703-.356.902.018 1.675l.303.626-.086.092h4.697l-.115-.122c-1.135-1.166-1.458-1.893-1.462-3.278-.002-.765.316-1.137 1.21-1.415 1.525-.475 2.09-.65 2.556-1.134.508-.526.849-1.353.849-2.056 0-.57-.495-1.431-1.4-2.44-1.549-1.727-1.849-1.911-2.136-3.555-.18-1.035-.296-1.343-.638-1.7-.466-.487-.659-1.189-.3-1.09a4.258 4.258 0 0 0 0-.002c-1.428-1.972-2.824-2.687-3.723-2.638zm-3.165 3.312z"/><path style="opacity:.1" d="M13.785 14.034a8.336 8.336 0 0 0-1.336.538c-.105.298-.21.876-.254 1.451-.056.718-.173 1.455-.26 1.638l-.008.02c.922.416 2.154.24 2.316-2.286-.109-.463.27-1.03-.458-1.361z"/><path style="opacity:.1" d="M15.013 12.474c-1.145.614-.549 1.663-.72 2.521.385 7.08 4.621 4.198 5.197 2.624l.17-.466c-.094-.308-.164-.666-.249-1.153-.094-.54-.171-.881-.272-1.136-1.08-.73-2.003-1.61-4.126-2.39z"/><path style="fill:#c12133" d="M14.948 30c-1.524-1.617.047-2.118-.054-4.109-.06-1.186-1.249-1.707-1.16-2.116.085-.325.66-.691.876-.69.079 0 .336.068.57.15.767.527 1.324-.074 1.624.273.172.196-.59 1.286-.57 2.284.042 1.974 1.405 4.151-1.286 4.208z"/><path style="opacity:.1" d="M11.749 19.017c-.06.285-.196.426-.474.488-2.116.473-3.738 2.79-3.124 4.953.268.945.873 1.546 1.553 1.542.25-.001 1.06-.199 1.802-.439 2.42-1.53 4.178.218 5.125-.792 1.453-1.685-1.316-6.08-4.882-5.752z"/><path style="fill:#f04559" d="M11.749 18.017c-.06.285-.196.426-.474.488-2.116.473-3.738 2.79-3.124 4.953.268.945.873 1.546 1.553 1.542.25-.001 1.06-.199 1.802-.439 2.42-1.53 4.178.218 5.125-.792 1.453-1.685-1.316-6.08-4.882-5.752z"/><ellipse style="opacity:.1" cx="6.943" cy="23.968" rx="1.896" ry="2.579" transform="matrix(.84416 -.5361 .46476 .88544 0 0)"/><ellipse style="fill:#fff" cx="7.409" cy="23.121" rx="1.896" ry="2.579" transform="matrix(.84416 -.5361 .46476 .88544 0 0)"/><circle style="fill:#333" cx="16.25" cy="16.25" r=".75"/><ellipse style="opacity:.1" cx="-17.445" cy="13.394" rx=".851" ry="1.021" transform="matrix(-.97132 -.23776 -.28145 .95958 0 0)"/><ellipse style="fill:#fff" cx="-17.163" cy="12.421" rx=".851" ry="1.021" transform="matrix(-.97132 -.23776 -.28145 .95958 0 0)"/><ellipse style="fill:#333" cx="-8.52" cy="18.81" rx=".349" ry=".334" transform="matrix(-.96895 .24727 .27083 .96263 0 0)"/><path style="fill:#f04559" d="M12.01 2c-.533-.012-1.141.435-2.052 1.486C8.584 5.07 7.918 6.105 7.434 7.4c-.715 1.918-.544 3.299.496 3.995.549.367.546.356.325 1.251-.141.574-.128.726.11 1.223.482 1.005 1.847 1.438 2.819.894.586-.328.736-.75.748-2.094.013-1.333-.006-1.572.435-1.57.364 0 1.201.527 1.201.756.205-1.331 2.444-1.392 4.66 1.923 1.006.298 1.577.11 1.857-.61l.174-.451.29.533c.337.617.733.767 1.697.643C23.582 13.722 25 12.394 25 11.315c0-.616-.612-1.597-1.884-3.017-1.442-1.61-1.967-1.71-3.28-.624-.923.763-1.26.854-1.659.448-.646-.657-1.362-.326-1.88.872-.455 1.052-.685.958-1.08-.44-.176-.618-.51-1.73-.745-2.47-.234-.741-.525-1.673-.647-2.07-.261-.858-1.044-1.832-1.592-1.98A.93.93 0 0 0 12.01 2zm.86 6.286c.02.002.04.007.057.014.28.116.625.702.672 1.14.05.467-.106.498-.93.182-.487-.187-.69-.346-.69-.539 0-.324.588-.83.892-.797z"/><path style="fill:#fff;opacity:.1" d="M3.4 2C2.625 2 2 2.625 2 3.4v1C2 3.625 2.625 3 3.4 3h25.2c.775 0 1.4.625 1.4 1.4v-1c0-.775-.625-1.4-1.4-1.4H3.4z"/></svg>
